www/assets/icons/assignment_return.svg

<svg xmlns="http://www.w3.org/2000/svg" width="24" height="24" viewBox="0 0 24 24" fill='currentColor'><path d="M19 4h-4.18C14.4 2.84 13.3 2 12 2s-2.4.84-2.82 2H5c-1.1 0-2 .9-2 2v14c0 1.1.9 2 2 2h14c1.1 0 2-.9 2-2V6c0-1.1-.9-2-2-2m-7 0c.55 0 1 .45 1 1s-.45 1-1 1-1-.45-1-1 .45-1 1-1m4 12h-4v3l-5-5 5-5v3h4z"/></svg>

<svg width="24" height="24" viewBox="0 0 24 24" xmlns="http://www.w3.org/2000/svg" fill='currentColor'><path d="M19 4H14.82C14.4 2.84 13.3 2 12 2C10.7 2 9.6 2.84 9.18 4H5C3.9 4 3 4.9 3 6V20C3 21.1 3.9 22 5 22H19C20.1 22 21 21.1 21 20V6C21 4.9 20.1 4 19 4ZM12 4C12.55 4 13 4.45 13 5C13 5.55 12.55 6 12 6C11.45 6 11 5.55 11 5C11 4.45 11.45 4 12 4ZM16 16H12V19L7 14L12 9V12H16V16Z"/></svg>
